X:1
T:Title
%%score { ( 1 4 ) | ( 2 3 ) }
L:1/8
M:4/4
K:Eb
V:1 treble nm="Grand Piano"
V:4 treble 
V:2 bass 
V:3 bass 
V:1
 z4 z2[Q:1/4=110] [EG]>[FA] | [GB]2 [EG]2 [Ee]2 [Ec]2 | [EB]2 [EG]4 [DF]>[EG] | [FA]4 [GB]2 A2 | %4
[M:3/4] G6 |[M:1/4] G>[FA] |[M:4/4] [GB]2 [EG]2 [Ee]2 [Ec]2 | B2 G4 c>B | =A4 B2 c2 | %9
[M:3/4] [DB]6 |[M:1/4] B>B |[M:4/4] [Ge]2 [EGB]2 [B,FA]2 [B,EG]2 | [A,DF]2 [G,E]4 [=Ec]>[EB] | %13
 [FA]4 [GB]2 A2 |[M:3/4] G6 |[M:1/4] B>B |[M:4/4] [Ge]2 [EGB]2 [B,FA]2 [B,EG]2 | %17
 [A,DF]2 [G,E]4 [A,CA]>[A,CF] | z4 D4 |[M:3/4] E6 |] %20
V:2
 z4 z2 [E,B,]>[E,B,] | [E,E]2 [_D,A,]2 [C,A,]2 [A,,A,]2 | [E,G,]2 [E,B,]4 [B,,B,]>[B,,B,] | %3
 [B,,B,]4 z2 F2 |[M:3/4] [E,B,E]6 |[M:1/4] [E,B,E]>[E,B,] | %6
[M:4/4] [E,E]2 [_D,B,]2 [C,A,]2 [A,,A,]2 | [E,G,E]2 [E,B,E]4 [E,A,E]>[E,G,E] | [F,C]4 D2 E2 | %9
[M:3/4] [B,,F,]6 |[M:1/4] B,>B, |[M:4/4] [E,B,]2 E,2 D,2 E,2 | B,,2 C,4 [C,G,]>[C,C] | %13
 [F,C]4 z2 F2 |[M:3/4] [E,B,E]6 |[M:1/4] B,>B, |[M:4/4] [E,B,]2 E,2 D,2 E,2 | B,,2 C,4 A,,>A,, | %18
 B,,4 z2 A,2 |[M:3/4] [E,G,]6 |] %20
V:3
 x8 | x8 | x8 | z4 [B,,B,]4 |[M:3/4] x6 |[M:1/4] x2 |[M:4/4] x8 | x8 | z4 F,4 |[M:3/4] x6 | %10
[M:1/4] x2 |[M:4/4] x8 | x8 | z4 [B,,B,]4 |[M:3/4] x6 |[M:1/4] x2 |[M:4/4] x8 | x8 | z4 B,,4 | %19
[M:3/4] x6 |] %20
V:4
 x8 | x8 | x8 | x8 |[M:3/4] x6 |[M:1/4] x2 |[M:4/4] x8 | x8 | x8 |[M:3/4] x6 |[M:1/4] x2 | %11
[M:4/4] x8 | x8 | x8 |[M:3/4] x6 |[M:1/4] x2 |[M:4/4] x8 | x8 | [G,B,E]4 [B,G]2 F2 |[M:3/4] x6 |] %20

